public/icons/raydium.svg

<svg width="65" height="74" viewBox="0 0 65 74" fill="none" xmlns="http://www.w3.org/2000/svg">
<path d="M60.9277 27.7717V53.5786L32.1359 70.1515L3.33244 53.5786V20.4329L32.1475 3.83695L54.2745 16.5844L57.6186 14.6659L32.1475 0L0 18.5029V55.4971L32.1475 74L64.2951 55.4971V25.8532L60.9277 27.7717Z" fill="url(#paint0_linear_354_2919)"/>
<path d="M23.0109 52.8569H17.8596V37.1183H35.0473C36.6688 37.107 38.2279 36.5086 39.3754 35.4473C40.5229 34.3973 41.159 32.9748 41.1715 31.4957C41.184 30.7619 41.0218 30.0393 40.71 29.3619C40.3982 28.6845 39.9367 28.0748 39.3629 27.5667C38.8016 27.0474 38.1281 26.6296 37.3922 26.3474C36.6563 26.0651 35.858 25.9183 35.0473 25.9296H17.8596V21.1426H35.0598C38.0657 21.1539 40.9594 22.2603 43.0798 24.1909C45.2127 26.1329 46.4101 28.7522 46.435 31.4957C46.4475 33.5957 45.749 35.6392 44.4269 37.3554C43.2046 38.9924 41.4833 40.2795 39.4752 41.0473C37.4795 41.6231 35.409 41.9053 33.326 41.894H23.0109V52.8569V52.8569Z" fill="url(#paint1_linear_354_2919)"/>
<path d="M46.4356 52.8566H40.3875L35.7197 43.5549C37.5643 43.4265 39.3837 42.9985 41.1278 42.2852L46.4356 52.8566Z" fill="url(#paint2_linear_354_2919)"/>
<path d="M57.1511 22.1281L60.7231 24.6671L64.295 22.1281V16.7465L60.7231 14.0957L57.1511 16.7465V22.1281Z" fill="url(#paint3_linear_354_2919)"/>
<defs>
<linearGradient id="paint0_linear_354_2919" x1="66.2443" y1="23.5516" x2="-1.86315" y2="50.8649" gradientUnits="userSpaceOnUse">
<stop stop-color="#C200FB"/>
<stop offset="0.4897" stop-color="#3772FF"/>
<stop offset="0.4898" stop-color="#3773FE"/>
<stop offset="1" stop-color="#5AC4BE"/>
</linearGradient>
<linearGradient id="paint1_linear_354_2919" x1="66.7471" y1="20.3275" x2="-4.18689" y2="51.4987" gradientUnits="userSpaceOnUse">
<stop stop-color="#C200FB"/>
<stop offset="0.4897" stop-color="#3772FF"/>
<stop offset="0.4898" stop-color="#3773FE"/>
<stop offset="1" stop-color="#5AC4BE"/>
</linearGradient>
<linearGradient id="paint2_linear_354_2919" x1="74.315" y1="33.1751" x2="-1.54058" y2="59.7134" gradientUnits="userSpaceOnUse">
<stop stop-color="#C200FB"/>
<stop offset="0.4897" stop-color="#3772FF"/>
<stop offset="0.4898" stop-color="#3773FE"/>
<stop offset="1" stop-color="#5AC4BE"/>
</linearGradient>
<linearGradient id="paint3_linear_354_2919" x1="64.5253" y1="17.4658" x2="-12.9629" y2="41.6568" gradientUnits="userSpaceOnUse">
<stop stop-color="#C200FB"/>
<stop offset="0.4897" stop-color="#3772FF"/>
<stop offset="0.4898" stop-color="#3773FE"/>
<stop offset="1" stop-color="#5AC4BE"/>
</linearGradient>
</defs>
</svg>

<svg xmlns="http://www.w3.org/2000/svg" width="65" height="74" fill="none"><path fill="url(#a)" d="M60.928 27.772v25.807L32.136 70.15 3.332 53.58V20.433L32.148 3.837l22.127 12.747 3.344-1.918L32.148 0 0 18.503v36.994L32.148 74l32.147-18.503V25.853l-3.367 1.919Z"/><path fill="url(#b)" d="M23.01 52.857h-5.15V37.118h17.187c1.622-.011 3.18-.61 4.328-1.67 1.148-1.05 1.784-2.473 1.797-3.952a4.892 4.892 0 0 0-.462-2.134 5.454 5.454 0 0 0-1.347-1.795 6.154 6.154 0 0 0-1.97-1.22 6.315 6.315 0 0 0-2.346-.417H17.86v-4.787h17.2c3.006.01 5.9 1.117 8.02 3.048 2.133 1.942 3.33 4.561 3.355 7.305.012 2.1-.686 4.143-2.008 5.86-1.222 1.636-2.944 2.923-4.952 3.691a21.75 21.75 0 0 1-6.149.847H23.011v10.963Z"/><path fill="url(#c)" d="M46.436 52.857h-6.048l-4.668-9.302a17.475 17.475 0 0 0 5.408-1.27l5.308 10.572Z"/><path fill="url(#d)" d="m57.151 22.128 3.572 2.54 3.572-2.54v-5.381l-3.572-2.651-3.572 2.65v5.382Z"/><defs><linearGradient id="a" x1="66.244" x2="-1.863" y1="23.552" y2="50.865" gradientUnits="userSpaceOnUse"><stop stop-color="#C200FB"/><stop offset=".49" stop-color="#3772FF"/><stop offset=".49" stop-color="#3773FE"/><stop offset="1" stop-color="#5AC4BE"/></linearGradient><linearGradient id="b" x1="66.747" x2="-4.187" y1="20.328" y2="51.499" gradientUnits="userSpaceOnUse"><stop stop-color="#C200FB"/><stop offset=".49" stop-color="#3772FF"/><stop offset=".49" stop-color="#3773FE"/><stop offset="1" stop-color="#5AC4BE"/></linearGradient><linearGradient id="c" x1="74.315" x2="-1.541" y1="33.175" y2="59.713" gradientUnits="userSpaceOnUse"><stop stop-color="#C200FB"/><stop offset=".49" stop-color="#3772FF"/><stop offset=".49" stop-color="#3773FE"/><stop offset="1" stop-color="#5AC4BE"/></linearGradient><linearGradient id="d" x1="64.525" x2="-12.963" y1="17.466" y2="41.657" gradientUnits="userSpaceOnUse"><stop stop-color="#C200FB"/><stop offset=".49" stop-color="#3772FF"/><stop offset=".49" stop-color="#3773FE"/><stop offset="1" stop-color="#5AC4BE"/></linearGradient></defs></svg>
